X:7912
T:The Boulonzier
C:anon.
O:Scotland
R:Country dance
Z:Transcribed by Frank Nordberg - http://www.musicaviva.com
F:http://abc.musicaviva.com/tunes/scotland/boulonzier.abc
M:2/4
L:1/8
K:C
g|edef|g2c2|edef|g2c2|edef|gagf|edef|g3:|
|:G|Gccc|c2cc|deBd|cBAG|Gccc|c2cc|dfBd|c3:|
W:
W:
W:  From Musica Viva - http://www.musicaviva.com
W:  the Internet center for free sheet music downloads.
